X: 620
T: How the Money Goes   #2
R: reel
%S: s:2 b:10(5+5)
B: Francis O'Neill: "The Dance Music of Ireland" (1907) #620
Z: Frank Nordberg - http://www.musicaviva.com
F: http://www.musicaviva.com/abc/tunes/ireland/oneill-1001/0620/oneill-1001-0620-1.abc
N: Compacted via repeats and multiple endings [JC]
M: C
L: 1/8
K: G
"^A"\
|: G2Bd gdBd | cBAc BGEF | G2Bd gdBd | ecAF [1 GFED :|[2 G2 "^B":: ef | gbef gedf |
|  gbef g2 [1 ef | gbef gedc | BGAF G2 :|[2 ga | bgaf gfed | egfa g2 z2 |]
